assets/img/star-gray.svg

<svg width="20" height="19" viewBox="0 0 20 19" fill="none" xmlns="http://www.w3.org/2000/svg">
<path d="M8.09789 1.8541C8.69659 0.011477 11.3034 0.0114784 11.9021 1.8541L12.6942 4.2918C12.9619 5.11584 13.7298 5.67376 14.5963 5.67376H17.1594C19.0969 5.67376 19.9024 8.15299 18.335 9.29179L16.2614 10.7984C15.5604 11.3077 15.2671 12.2104 15.5348 13.0344L16.3269 15.4721C16.9256 17.3148 14.8166 18.847 13.2492 17.7082L11.1756 16.2016C10.4746 15.6923 9.5254 15.6923 8.82443 16.2016L6.7508 17.7082C5.18337 18.847 3.07441 17.3148 3.67312 15.4721L4.46517 13.0344C4.73292 12.2104 4.43961 11.3077 3.73863 10.7984L1.665 9.29179C0.0975747 8.15299 0.903127 5.67376 2.84057 5.67376H5.40372C6.27017 5.67376 7.03808 5.11584 7.30583 4.2918L8.09789 1.8541Z" fill="#D9D9D9"/>
</svg>

<svg width="20" height="19" fill="none" xmlns="http://www.w3.org/2000/svg"><path d="M8.098 1.854c.599-1.843 3.205-1.843 3.804 0l.792 2.438a2 2 0 0 0 1.902 1.382h2.563c1.938 0 2.743 2.479 1.176 3.618l-2.074 1.506a2 2 0 0 0-.726 2.236l.792 2.438c.599 1.843-1.51 3.375-3.078 2.236l-2.073-1.506a2 2 0 0 0-2.352 0l-2.073 1.506c-1.568 1.139-3.677-.393-3.078-2.236l.792-2.438a2 2 0 0 0-.726-2.236L1.665 9.292C.098 8.153.903 5.674 2.841 5.674h2.563a2 2 0 0 0 1.902-1.382l.792-2.438Z" fill="#D9D9D9"/></svg>
